X:70
T: Owld Ocsfford. Owld Oxfford
M: C
L: 1/4
Q:150
S:Alawon John Thomas NLW isbn 1-86225-042-1 ed. Cass Meurig
R:Reel
K: C
D/E/F/G/A2| BGA2|D/E/ F/G/ A2|d^cde|
fe/f/gf/e/|fe/d/^c2|dABG|AAD2:|
F/G/A/G/F/G/A/G/|F/G/A/B/c2|E/F/G/F/E/F/G/F/|E/F/G/A/B2|
fe/f/gf/e/|fe/d/^c2|dABG|AA,D2:|
